!!!COM: Bach, Johann Sebastian
!!!CDT: 1685/02/21/-1750/07/28/
!!!OPR: Partita for solo violin, No. 2 in D Minor
!!!OTL: Movement 1: Allemande
!!!ODT: 1720///
!!!SCT: BWV 1004
**kern
*>[A,A,B,B]
*>norep[A,B]
*>A
*Ivioln
*clefG2
*k[b-]
*met(C)
*M4/4
*MM94
16d/
=1
*^
8.d/L	8.d\
*v	*v
16e/Jk
16f/LL
16g/
16a/
16b-/JJ
16c#/LL
(16b-/
16a/
16g/JJ)
8.ee\L
16g\Jk
=2
(16f/LL
16c#/)
(16d/
16A/JJ)
(16B-/LL
16d/)
(16f/
16g/JJ)
16c#/LL
16A/
16c#/
16e/JJ
(24a/LL
24g/
24f/JJ)
(24g/LL
24f/
24e/JJ)
=3
16f/LL
16d/
16f/
16a/JJ
(24b-/LL
24a/
24g/JJ)
(24a/LL
24g/
24f/JJ)
16e/LL
16g/
16b-/
16dd/JJ
(24cc/LL
24b-/
24a/JJ)
(24b-/LL
24a/
24g/JJ)
=4
16a/LL
16f/
16a/
16cc/JJ
(16ff\LL
16gg\
16aa\)
16cc\JJ
16dd\LL
16a\
16b-\
16dd\JJ
(16gg\LL
16aa\
16bb-\)
16dd\JJ
=5
16ee/LL
16b-/
16cc/
16g/JJ
(16a/LL
16b-/
16cc/)
16e/JJ
16f/LL
16A/
16B-/
16g/JJ
16c/LL
16e/
16g/
16b-/JJ
=6
(16a/LL
16g/
16f/)
16a/JJ
16dd/LL
16g/
16e/
16d/JJ
16c#\LL
16ee\
16ff\
16gg\JJ
16a\LL
16gg\
16ff\
16ee\JJ
=7
(16ff\LL
16ee\
16dd\)
16e\JJ
16d/LL
16c/
16B/
16A/JJ
16G#/LL
16b/
16cc/
16dd/JJ
16e/LL
(16dd/
16cc/
16b/JJ)
=8
(16cc\LL
16b\
16a\)
16b\JJ
(16cc\LL
32ff\L
32ee\J
16dd\)
16cc\JJ
(16b\LL
16a\
16g\)
16a\JJ
(16b\LL
32ee\L
32dd\J
16cc\)
16b\JJ
=9
(16a/LL
16g/
16f/
32g/L
32a/JJJ)
16d/LL
16cc/
16b/
16a/JJ
(16g#/LL
16f#/
16e/
16f#/JJ
16g#/LL
16a/
16b/
16cc/JJ)
=10
(16dd\LL
16ee\
16ff\
16ee\JJ
16dd\LL
16cc\
16b\
16a\JJ)
(16gg#\LL
16aa\
16bb\
16aa\JJ
16gg#\LL
16ff#\
16ee\
16dd\JJ)
=11
(16cc\LL
32dd\L
32ee\J
16ff\)
16aa\JJ
(16b\LL
32cc\L
32dd\J
16ee\)
16gg\JJ
(16a\LL
32b\L
32cc\J
16dd\)
16ff\JJ
(16g\LL
32a\L
32b\J)
16cc\
16ee\JJ
=12
(16f/LL
32g/L
32a/J
16b/)
16dd/JJ
(16e/LL
32f#/L
32g#/J
16a/)
16cc/JJ
(16d/LL
16c#/
16d/
16fn/JJ)
(16b-/LL
16cc/
16dd/
16b-/JJ)
=13
(16f/LL
16e/
16f/)
16b-/JJ
16dd\LL
16ee\
16ff\
16dd\JJ
(16b-\LL
16a\
16b-\)
16dd\JJ
(16ff\LL
32gg\L
32aa\J
16bb-\)
16aa\JJ
=14
16gg#\LL
(32bb\L
32aa\J
16gg#\)
(32ff\L
32ee\JJJ
16dd\LL)
(32ff\L
32ee\J
16dd\)
(32b\L
32a\JJJ
16g#\LL)
(16b\
16ee\)
16gg#\JJ
16bb\LL
16ee\
(16ddd\
32ccc\L
32bb\JJJ)
=15
(16ccc\LL
32bb\L
32aa\J
16gg#\)
16aa\JJ
(24cc\LL
24dd\
24ee\JJ)
(24dd\LL
24cc\
24b\JJ)
8.a\L
16b\Jk
16cc#\LL
16dd\
16ee\
16g\JJ
=16
(16f/LL
16d/
16f/
16a/JJ
16dd\LL
16ff\
16gg#\)
16d/
*^
*	*^
*	*	*^
4.A/	4.e/	4.cc#/	4.aa/
*v	*v	*v	*v
16r
=:|!|:
*>B
16ee\
=17
*^
8.ee/	8.ee\L
*v	*v
16ff\Jk
16ee\LL
16dd\
16cc#\
16b\JJ
(16a/LL
32g/L
32a/J
16b-/)
16a/JJ
16g/LL
16f/
16e/
16f/JJ
=18
(16g/LL
16f/)
(16e/
16d/JJ)
16ff/LL
16a/
16b-/
16d/JJ
16c/LL
(16g/
16b-/
16ee-/JJ)
16a\LL
16cc\
16ff\
16ee-\JJ
=19
16dd\LL
(16a\
16b-\
16dd\JJ)
16e-/LL
16g/
16a/
16b/JJ
16cc\LL
16dd\
16ee-\
16cc\JJ
(24aa\LL
24gg\
24ff#\JJ)
(24gg\LL
24ff#\
24ee\JJ)
=20
(16ff#\LL
32cc\L
32dd\J
16ee-\)
16dd\JJ
(16cc\LL
32b-\L
32a\J
16dd\)
16cc\JJ
(16b-\LL
32cc\L
32dd\J
16ee-\)
16gg\JJ
(16a\LL
32b-\L
32cc\J
16dd\)
16ff\JJ
=21
(16g\LL
32a\L
32b-\J
16cc\)
16ee-\JJ
(16f\LL
32g\L
32a\J
16b-\)
16dd\JJ
16e-\LL
(32gg\L
32ff\J
16ee-\)
(32cc\L
32b-\JJJ
16a/LL)
(32cc/L
32b-/J
16a/)
(32f#/L
32e/JJJ
=22
16d/LL)
16f#/
16a/
16cc/JJ
(24ee-\LL
24dd\
24cc\JJ)
(24ff#\LL
24ee\
24dd\JJ)
(16bb-\LL
32aa\L
32gg\J
16ff#\)
16gg\JJ
(24b-\LL
24cc\
24dd\JJ)
(24cc\LL
24b-\
24a\JJ)
=23
8.g/L
16a/Jk
16b-/LL
16cc/
16dd/
16f/JJ
16e/LL
16c/
16e/
16g/JJ
(16b-\LL
32ee\L
32ff\J
16gg\)
16b-\JJ
=24
16a/LL
16f/
16a/
16cc/JJ
16ff/LL
16a/
16g/
16f/JJ
16c/LL
16g/
16cc/
16dd/JJ
16ee/LL
16b-/
16a/
16g/JJ
=25
16f/LL
16d/
16f/
16a/JJ
16dd/LL
16f/
16e/
16d/JJ
16A/LL
16e/
16a/
16b-/JJ
16cc/LL
16g/
16f/
16e-/JJ
=26
16d/LL
16B-/
16d/
16f/JJ
16b-/LL
16a/
16g/
16f/JJ
(16ee\LL
32ff\L
32gg\J
16ff\)
16ee\JJ
(16dd\LL
16cc\
16b-\)
16gg\JJ
=27
(32a/LLL
32g/
32f/
32e/J
16f/)
16B-/JJ
16c/LL
16e/
16g/
16a/JJ
(16b-/LL
16a/)
(16g/
16f/JJ)
16aa\LL
16ee\
16ff\
16dd\JJ
=28
(16b\LL
16dd\
16ff\)
16aa\JJ
16gg\LL
16ee\
16cc#\
16gg\JJ
(16d\LL
16a\
16cc#\)
16gg\JJ
16ff\LL
16cc#\
16dd\
16b-\JJ
=29
(16g\LL
16b-\
16dd\)
16ff\JJ
16ee-\LL
16cc\
16a\
16ee-\JJ
(16B-/LL
16f/
16a/)
16ee-/JJ
16dd/LL
16a/
16b-/
16g/JJ
=30
(16e/LL
16g/
16b-/)
16dd/JJ
16cc/LL
16a/
16f#/
16cc/JJ
16b-/LL
16a/
16g/
16f/JJ
16e-/LL
16d/
16e-/
16g/JJ
=31
(16b-\LL
16a\
16b-\)
16ee-\JJ
(16gg\LL
16ff#\
16gg\)
16bb-\JJ
(16cc#\LL
32a\L
32b\J
16cc#\)
16ee\JJ
16g/LL
(32b-/L
32a/J
16g/)
(32f/L
32e/JJJ
=32
16f/LL)
(32a/L
32g/J
16f/)
(32e/L
32d/JJJ
16A/LL)
16e/
16dd/
16cc#/JJ
*^
4.dd/	4.d/
*v	*v
==:|!
*-
